X: 4880
T: Braes Of Locheil, The
R: jig
M: 6/8
K: Aminor
|:AGB A2A|age deg|GBA G2B|deg edB|
BAG A2A|age deg|BGB deg|B2A A2e:|
|:aAa a2e|age deg|GBA G2B|deg edB|
BAG A2A|age deg|BGB deg|B2A A2e:|

